X:1
T:[ID 6-54]
T:[ID 6-54]
T:Bezeichnung standardisiert: Menuet [mit Trio] Menuet Con Trio 25.
T:Urheber unbekannt Datum in der hier transkribierten schriftlichen Quelle: 1775
C:Urheber unbekannt
C:Datum in der hier transkribierten schriftlichen Quelle: 1775
L:1/8
M:3/4
K:G
V:1 treble 
V:1
 [GB]2 [GB]2 [GB]2 | (3cBA B4 | c2 B2 A2 | D2 CD B,2 | Bd g2 (3gdB | Bd f2 (3fcA | %6
 (3cde (3dAF (3GFE | F4 z2 :: BBgBAG | AAfAGF | GB B2 G2 | G2 F2 z2 | [GB]2 [GB]2 [GB]2 | %13
 (3cBA B4 | (3cAF (3GDB, (3CB,A, | B,4 z2 :|[M:3/4]"^Trio" !fermata!B2 B2 B2 | BAAG G2 | D2 D2 E2 | %19
 DCCB, B,2 | c2 B2 B2 | c2 B2 B2 | BAAGGF | F4 z2 :: F2 F2 F2 | F2 G2 F2 | F2 A2 G2 | G2 F2 z2 | %28
 c2 c2 B2 | BAAG G2 | (3cAF (3GDB, (3CB,A, | G,4 z2 :| %32

